X: 3
T: the Road to Errogie % (R-176)
S: Scottish reel, originally in B major
Z:
C: \251Adam Sutherland
M: C|
L: 1/8
K: A
AF |:   "A"EA A2 "E"BABc | "A"eA A2 "E"Bcea | "D"f3f "A"ecAc | "Bm"BABc [1,3 "E"BAFA :|[2,4 "A"A2 :| 
|: ce | "A"a2-a a-a2ba | "A7"c'3b a3 e | "D"f2 ea- "A"ae f2- | "Bm"feae "E"fe ||
[1 ce | "A"a2-a a-a2ba | "A7"c'3b a3 e | "D"f3 a "A"ecAc | "E"BABc "A"A2 :|
[2 ce | "A"EA A2 "E"BABc | "A"eA A2 "E"Bcea | "D"f3f "A"ecAc | "E"BABc "A"A2 |] 
%%text Ending: Choke the last note
